X:1
T:Eccolo la!
T:Eccolo la!
T:La Boheme
T:G. Puccini
C:G. Puccini
%%score [ 1 2 3 ] 4
L:1/8
Q:1/4=100
M:2/4
K:Bb
V:1 treble nm="Soprano" snm="S."
V:2 treble nm="Alto" snm="A."
V:3 bass nm="Tenor" snm="T."
V:4 bass nm="Bass" snm="B."
V:1
"^\n" B2 B3/2 d/ | f7/2 e/ | d c d3/2 e/ | (d2 c3/2) B/ | c2 d2 | c7/2 B/ | c2 d2 | c3/2 d/ e d | %8
w: Ec- cå- lå|là! Il|bel tam- bor mag-|giår!- * La|can- na|d'år, tot-|tå splen-|dår! Ke guar- da,|
 c2 B2 | c2 z2 | (f>g) f e | d7/2 d/ | e d e3/2 f/ | g7/2 c/ | d c d e | f7/2 F/ | B2 c2 | %17
w: pas- sa,|va!|Tot- * tå splen-|dår Di|Francia èil piu bel-|l'uåm! Il|bel tam- bor mag-|giår Ec-|cå- lå|
 d3/2 e/ f e | d2 c2 | B2 z2 | z4 |] %21
w: là! Ke guar- da,|pas- sa,|va!||
V:2
 D2 D3/2 B/ | d7/2 c/ | B F B3/2 c/ | (B2 F3/2) D/ | F2 B2 | F7/2 D/ | F2 B2 | F3/2 B/ c B | %8
w: Ec- cå- lå|là! Il|bel tam- bor mag-|giår!- * La|can- na|d'år, tot-|tå splen-|dår Ke guar- da,|
 F2 D2 | F2 z2 | (F>G) F c | B7/2 B/ | G B G3/2 B/ | E7/2 A/ | B F B c | d7/2 F/ | D2 F2 | %17
w: pas- sa,|va!|Tot- * tå splen-|dår Di|Francia èil piu bel-|l'uåm! Il|bel tam- bor mag-|giår Ec-|cå- lå|
 B3/2 c/ d c | B2 F2 | D2 z2 | z4 |] %21
w: là! Ke guar- da,|pas- sa,|va!||
V:3
 B,2 B,3/2 D/ | F7/2 E/ | D C D3/2 E/ | (D2 C3/2) B,/ | C2 D2 | C7/2 B,/ | C2 D2 | C3/2 D/ E D | %8
w: Ec- cå- lå|là! Il|bel tam- bor mag-|giår!- * La|can- na|d'år, tot-|tå splen-|dår Ke guar- da,|
 C2 B,2 | C2 z2 | (D>E) D C | B,7/2 B,/ | G, B, G,3/2 B,/ | E7/2 C/ | D C D E | F7/2 F,/ | B,2 C2 | %17
w: pas- sa,|va!|Tot- * tå splen-|dår Di|Francia èil piu bel-|l'uåm! Il|bel tam- bor mag-|giår Ec-|cå- lå|
 D3/2 E/ F E | D2 C2 | B,2 z2 | z4 |] %21
w: là! Ke guar- da,|pas- sa,|va!||
V:4
 D,2 D,3/2 B,/ | D7/2 C/ | B, F, B,3/2 C/ | (B,2 F,3/2) D,/ | F,2 B,2 | F,7/2 D,/ | F,2 B,2 | %7
w: Ec- cå- lå|là! Il|bel tam- bor mag-|giår!- * La|can- na|d'år, tot-|tå splen-|
 F,3/2 B,/ C B, | F,2 D,2 | F,2 z2 | (D>E) D C | B,7/2 B,/ | G, B, G,3/2 B,/ | E7/2 A,/ | %14
w: dår Ke guar- da,|pas- sa,|va!|Tot- * tå splen-|dår Di|Francia èil piu bel-|l'uåm! Il|
 B, F, B, C | D7/2 E,/ | D,2 F,2 | B,3/2 C/ D C | B,2 F,2 | B,2 z2 | z4 |] %21
w: bel tam- bor mag-|giår Ec-|cå- lå|là! Ke guar- da,|pas- sa,|va!||

